gtk-icons/Papirus-Dark-GTK/16x16/actions/view-readermode-active.svg

<?xml version="1.0" encoding="UTF-8" standalone="no"?>
<!-- Created with Inkscape (http://www.inkscape.org/) -->

<svg
   xmlns:osb="http://www.openswatchbook.org/uri/2009/osb"
   xmlns:dc="http://purl.org/dc/elements/1.1/"
   xmlns:cc="http://creativecommons.org/ns#"
   xmlns:rdf="http://www.w3.org/1999/02/22-rdf-syntax-ns#"
   xmlns:svg="http://www.w3.org/2000/svg"
   xmlns="http://www.w3.org/2000/svg"
   xmlns:sodipodi="http://sodipodi.sourceforge.net/DTD/sodipodi-0.dtd"
   xmlns:inkscape="http://www.inkscape.org/namespaces/inkscape"
   sodipodi:docname="view-readermode-active.svg"
   inkscape:export-filename="/home/sam/source-symbolic.png"
   inkscape:export-xdpi="270"
   inkscape:export-ydpi="270"
   height="16"
   id="svg7384"
   style="enable-background:new"
   version="1.1"
   inkscape:version="0.91 r13725"
   width="16">
  <sodipodi:namedview
     inkscape:bbox-nodes="true"
     inkscape:bbox-paths="true"
     bordercolor="#666666"
     borderlayer="false"
     borderopacity="1"
     inkscape:current-layer="g6058"
     inkscape:cx="-0.64761762"
     inkscape:cy="4.2249643"
     gridtolerance="10"
     inkscape:guide-bbox="true"
     guidetolerance="10"
     id="namedview88"
     inkscape:object-nodes="true"
     inkscape:object-paths="true"
     objecttolerance="10"
     pagecolor="#f7f7f7"
     inkscape:pageopacity="1"
     inkscape:pageshadow="2"
     showborder="true"
     showgrid="false"
     showguides="true"
     inkscape:showpageshadow="false"
     inkscape:snap-bbox="true"
     inkscape:snap-bbox-edge-midpoints="false"
     inkscape:snap-bbox-midpoints="false"
     inkscape:snap-center="false"
     inkscape:snap-global="true"
     inkscape:snap-grids="true"
     inkscape:snap-intersection-paths="true"
     inkscape:snap-midpoints="true"
     inkscape:snap-nodes="true"
     inkscape:snap-object-midpoints="true"
     inkscape:snap-others="true"
     inkscape:snap-page="false"
     inkscape:snap-smooth-nodes="true"
     inkscape:snap-to-guides="true"
     inkscape:window-height="847"
     inkscape:window-maximized="1"
     inkscape:window-width="1600"
     inkscape:window-x="0"
     inkscape:window-y="30"
     inkscape:zoom="22.84">
    <inkscape:grid
       color="#ffffff"
       dotted="false"
       empcolor="#0800ff"
       empopacity="0.4627451"
       empspacing="4"
       enabled="true"
       id="grid4866"
       opacity="0.16470588"
       originx="-444"
       originy="-96"
       snapvisiblegridlinesonly="true"
       spacingx="0.25px"
       spacingy="0.25px"
       type="xygrid"
       visible="true" />
  </sodipodi:namedview>
  <metadata
     id="metadata90">
    <rdf:RDF>
      <cc:Work
         rdf:about="">
        <dc:format>image/svg+xml</dc:format>
        <dc:type
           rdf:resource="http://purl.org/dc/dcmitype/StillImage" />
        <dc:title>Paper Symbolic Icon Theme</dc:title>
      </cc:Work>
    </rdf:RDF>
  </metadata>
  <title
     id="title8473">Paper Symbolic Icon Theme</title>
  <defs
     id="defs7386">
    <linearGradient
       id="linearGradient5606"
       osb:paint="solid">
      <stop
         id="stop5608"
         offset="0"
         style="stop-color:#ffffff;stop-opacity:1;" />
    </linearGradient>
    <filter
       inkscape:collect="always"
       id="filter7554"
       style="color-interpolation-filters:sRGB">
      <feBlend
         inkscape:collect="always"
         id="feBlend7556"
         in2="BackgroundImage"
         mode="darken" />
    </filter>
  </defs>
  <g
     inkscape:groupmode="layer"
     id="layer9"
     inkscape:label="status"
     style="display:inline"
     transform="translate(-685.0002,-121)" />
  <g
     inkscape:groupmode="layer"
     id="layer10"
     inkscape:label="devices"
     style="display:inline;filter:url(#filter7554)"
     transform="translate(-685.0002,-121)" />
  <g
     inkscape:groupmode="layer"
     id="layer1"
     inkscape:label="places"
     style="display:inline"
     transform="translate(-444,-738)" />
  <g
     inkscape:groupmode="layer"
     id="layer14"
     inkscape:label="mimetypes"
     style="display:inline"
     transform="translate(-685.0002,-121)" />
  <g
     inkscape:groupmode="layer"
     id="layer15"
     inkscape:label="emblems"
     style="display:inline"
     transform="translate(-685.0002,-121)" />
  <g
     inkscape:groupmode="layer"
     id="g71291"
     inkscape:label="emotes"
     style="display:inline"
     transform="translate(-685.0002,-121)" />
  <g
     inkscape:groupmode="layer"
     id="layer2"
     inkscape:label="categories"
     style="display:inline"
     transform="translate(-444,-588)" />
  <g
     inkscape:groupmode="layer"
     id="g6058"
     inkscape:label="apps"
     style="display:inline"
     transform="translate(-444,-588)">
    <g
       id="g5431"
       transform="translate(120.9998,-41.00001)"
       style="opacity:0.72;fill:#ffffff;fill-opacity:1">
      <g
         id="g5436"
         style="fill:#ffffff;fill-opacity:1">
        <path
           style="color:#ffffff;font-style:normal;font-variant:normal;font-weight:normal;font-stretch:normal;font-size:medium;line-height:normal;font-family:sans-serif;text-indent:0;text-align:start;text-decoration:none;text-decoration-line:none;text-decoration-style:solid;text-decoration-color:#ffffff;letter-spacing:normal;word-spacing:normal;text-transform:none;direction:ltr;block-progression:tb;writing-mode:lr-tb;baseline-shift:baseline;text-anchor:start;white-space:normal;clip-rule:nonzero;display:inline;overflow:visible;visibility:visible;opacity:1;isolation:auto;mix-blend-mode:normal;color-interpolation:sRGB;color-interpolation-filters:linearRGB;solid-color:#ffffff;solid-opacity:1;fill:#ffffff;fill-opacity:1;fill-rule:nonzero;stroke:none;stroke-width:0.99999988;stroke-linecap:butt;stroke-linejoin:miter;stroke-miterlimit:4;stroke-dasharray:none;stroke-dashoffset:0;stroke-opacity:1;color-rendering:auto;image-rendering:auto;shape-rendering:auto;text-rendering:auto;enable-background:accumulate"
           d="M 10.029297 1 C 9.8819168 1.003 9.7293425 1.0169625 9.5703125 1.0390625 C 9.0034025 1.1178625 8.3186975 1.3914781 7.5546875 1.7988281 C 6.0141075 0.94567815 4.8138006 0.89374686 3.8066406 1.1542969 C 2.7378006 1.4308069 1.868925 1.88434 0.515625 1.84375 L 0 1.828125 L 0 2.3476562 L 0 12.744141 L 0 16 L 11.787109 16 C 11.30413 15.466651 11 14.768603 11 14 C 11 12.815785 11.707751 11.791002 12.714844 11.304688 C 12.228076 11.167999 11.735275 11.019157 11.189453 10.882812 C 10.209613 10.638053 9.09815 10.696077 8 11.367188 L 8 2.6699219 C 8.70328 2.2844019 9.2454475 2.0716725 9.6796875 2.0078125 C 9.9189475 1.9726125 10.131991 1.9756531 10.337891 2.0019531 C 10.543791 2.0284531 10.742569 2.079065 10.949219 2.140625 C 11.483649 2.300375 12.14262 2.5531719 13 2.7011719 L 13 11.1875 C 13.314894 11.073942 13.648149 11 14 11 C 14.351851 11 14.685106 11.073942 15 11.1875 L 15 1.8457031 L 14.482422 1.8632812 C 12.965782 1.9184813 12.211902 1.464645 11.232422 1.171875 C 10.865122 1.062075 10.471437 0.99098 10.029297 1 z M 5.21875 1.9941406 C 5.71774 2.0327406 6.28217 2.213495 7 2.609375 L 7 11.335938 C 5.89555 10.694178 4.7902063 10.645922 3.8164062 10.888672 C 3.1632062 11.051492 2.56918 11.237652 2 11.388672 L 2 2.6640625 C 2.8021 2.5161325 3.4740675 2.2830225 4.0546875 2.1328125 C 4.2857975 2.0730125 4.5091312 2.02398 4.7382812 2 C 4.8933012 1.9838 5.05242 1.9813406 5.21875 1.9941406 z M 14 12 A 2 2 0 0 0 12 14 A 2 2 0 0 0 14 16 A 2 2 0 0 0 16 14 A 2 2 0 0 0 14 12 z "
           transform="translate(323.0002,629.00001)"
           id="rect2996" />
      </g>
    </g>
  </g>
  <g
     inkscape:groupmode="layer"
     id="layer12"
     inkscape:label="actions"
     style="display:inline"
     transform="translate(-685.0002,-121)" />
</svg>

<?xml version="1.0" encoding="UTF-8" standalone="no"?>
<!-- Created with Inkscape (http://www.inkscape.org/) -->
<svg id="svg7384" xmlns:rdf="http://www.w3.org/1999/02/22-rdf-syntax-ns#" style="enable-background:new" xmlns="http://www.w3.org/2000/svg" xmlns:osb="http://www.openswatchbook.org/uri/2009/osb" height="16" width="16" version="1.1" xmlns:cc="http://creativecommons.org/ns#" xmlns:dc="http://purl.org/dc/elements/1.1/">
 <metadata id="metadata90">
  <rdf:RDF>
   <cc:Work rdf:about="">
    <dc:format>image/svg+xml</dc:format>
    <dc:type rdf:resource="http://purl.org/dc/dcmitype/StillImage"/>
    <dc:title>Paper Symbolic Icon Theme</dc:title>
   </cc:Work>
  </rdf:RDF>
 </metadata>
 <title id="title8473">Paper Symbolic Icon Theme</title>
 <defs id="defs7386">
  <filter id="filter7554" style="color-interpolation-filters:sRGB">
   <feBlend id="feBlend7556" in2="BackgroundImage" mode="darken"/>
  </filter>
 </defs>
 <g id="g6058" transform="translate(-444,-588)">
  <g id="g5431" opacity=".72" transform="translate(121 -41)" fill="#fff">
   <g id="g5436" fill="#fff">
    <path id="rect2996" opacity="1" style="enable-background:accumulate;color-rendering:auto;text-decoration-color:#ffffff;color:#ffffff;isolation:auto;mix-blend-mode:normal;shape-rendering:auto;solid-color:#ffffff;block-progression:tb;text-decoration-line:none;text-decoration-style:solid;image-rendering:auto;white-space:normal;text-indent:0;text-transform:none" d="m10.029 1c-0.1471 0.003-0.2997 0.017-0.4587 0.0391-0.5669 0.0788-1.2516 0.3524-2.0156 0.7597-1.5406-0.85312-2.7409-0.90505-3.7481-0.6445-1.0688 0.2765-1.9377 0.73-3.291 0.6895l-0.5156-0.0157v0.5196 10.396 3.256h11.787c-0.483-0.533-0.787-1.231-0.787-2 0-1.184 0.708-2.209 1.715-2.695-0.487-0.137-0.98-0.286-1.526-0.422-0.979-0.245-2.0908-0.187-3.189 0.484v-8.6971c0.7033-0.3855 1.2454-0.5982 1.6797-0.6621 0.2392-0.0352 0.4523-0.0321 0.6583-0.0058 0.206 0.0265 0.405 0.0771 0.611 0.1386 0.535 0.1598 1.194 0.4126 2.051 0.5606v8.4868c0.315-0.114 0.648-0.188 1-0.188s0.685 0.074 1 0.188v-9.3423l-0.518 0.0176c-1.516 0.0552-2.27-0.3987-3.25-0.6914-0.367-0.1098-0.761-0.18092-1.203-0.1719zm-4.8102 0.9941c0.4989 0.0386 1.0634 0.2194 1.7812 0.6153v8.7266c-1.1044-0.642-2.2098-0.69-3.1836-0.447-0.6532 0.162-1.2472 0.349-1.8164 0.5v-8.7249c0.8021-0.148 1.4741-0.3811 2.0547-0.5313 0.2311-0.0598 0.4544-0.1088 0.6836-0.1328 0.155-0.0162 0.3141-0.0187 0.4805-0.0059zm8.7812 10.006a2 2 0 0 0 -2 2 2 2 0 0 0 2 2 2 2 0 0 0 2 -2 2 2 0 0 0 -2 -2z" transform="translate(323 629)" fill="#fff"/>
   </g>
  </g>
 </g>
</svg>
